X:105
T:Quick March from Louth. JGi.105
O:Tealby,Lincolnshire
M:2/4
L:1/8
Q:1/4=120
S:Joshua Gibbons MS,1823,Tealby,Lincs.
R:march
Z:VMP/R.Greig, 2009
K:G
B>A|G3d|dBBe|dBBe|dBBg|G3e|dBBe|e>g dB|B3A|G3e|dBBe|dBBe|dBBg|G3e|dBBe|e>g dB|A4:|
|:bggb|affa|geef|dBB2|bggb|affd|egga|a3g|bggb|affa|geef|dBB2|g<b f<a|e<g d<f|e<g dB|A4:|

